images/3233259.svg

<?xml version="1.0" encoding="UTF-8"?>
<svg xmlns="http://www.w3.org/2000/svg" xmlns:xlink="http://www.w3.org/1999/xlink" width="300pt" height="300pt" viewBox="0 0 300 300" version="1.1">
<defs>
<g>
<symbol overflow="visible" id="glyph0-0">
<path style="stroke:none;" d="M 0.453125 1.59375 L 0.453125 -6.34375 L 4.953125 -6.34375 L 4.953125 1.59375 Z M 0.953125 1.09375 L 4.453125 1.09375 L 4.453125 -5.84375 L 0.953125 -5.84375 Z M 0.953125 1.09375 "/>
</symbol>
<symbol overflow="visible" id="glyph0-1">
<path style="stroke:none;" d="M 0.890625 -6.5625 L 2.078125 -6.5625 L 4.984375 -1.078125 L 4.984375 -6.5625 L 5.84375 -6.5625 L 5.84375 0 L 4.65625 0 L 1.75 -5.484375 L 1.75 0 L 0.890625 0 Z M 0.890625 -6.5625 "/>
</symbol>
<symbol overflow="visible" id="glyph0-2">
<path style="stroke:none;" d="M 3.546875 -5.953125 C 2.898438 -5.953125 2.382812 -5.710938 2 -5.234375 C 1.625 -4.753906 1.4375 -4.101562 1.4375 -3.28125 C 1.4375 -2.445312 1.625 -1.789062 2 -1.3125 C 2.382812 -0.832031 2.898438 -0.59375 3.546875 -0.59375 C 4.191406 -0.59375 4.703125 -0.832031 5.078125 -1.3125 C 5.453125 -1.789062 5.640625 -2.445312 5.640625 -3.28125 C 5.640625 -4.101562 5.453125 -4.753906 5.078125 -5.234375 C 4.703125 -5.710938 4.191406 -5.953125 3.546875 -5.953125 Z M 3.546875 -6.6875 C 4.460938 -6.6875 5.195312 -6.375 5.75 -5.75 C 6.300781 -5.132812 6.578125 -4.3125 6.578125 -3.28125 C 6.578125 -2.238281 6.300781 -1.410156 5.75 -0.796875 C 5.195312 -0.179688 4.460938 0.125 3.546875 0.125 C 2.617188 0.125 1.878906 -0.179688 1.328125 -0.796875 C 0.773438 -1.410156 0.5 -2.238281 0.5 -3.28125 C 0.5 -4.3125 0.773438 -5.132812 1.328125 -5.75 C 1.878906 -6.375 2.617188 -6.6875 3.546875 -6.6875 Z M 3.546875 -6.6875 "/>
</symbol>
</g>
</defs>
<g id="surface29421">
<rect x="0" y="0" width="300" height="300" style="fill:rgb(100%,100%,100%);fill-opacity:1;stroke:none;"/>
<path style="fill:none;stroke-width:1.2;stroke-linecap:butt;stroke-linejoin:miter;stroke:rgb(0%,0%,0%);stroke-opacity:1;stroke-miterlimit:10;" d="M 45.867188 220.847656 L 64.570312 203.921875 "/>
<path style="fill:none;stroke-width:1.2;stroke-linecap:butt;stroke-linejoin:miter;stroke:rgb(0%,0%,0%);stroke-opacity:1;stroke-miterlimit:10;" d="M 64.570312 203.921875 L 76.574219 207.785156 "/>
<path style="fill:none;stroke-width:1.2;stroke-linecap:butt;stroke-linejoin:miter;stroke:rgb(0%,0%,100%);stroke-opacity:1;stroke-miterlimit:10;" d="M 76.574219 207.785156 L 88.582031 211.652344 "/>
<path style="fill:none;stroke-width:1.2;stroke-linecap:butt;stroke-linejoin:miter;stroke:rgb(0%,0%,0%);stroke-opacity:1;stroke-miterlimit:10;" d="M 68.789062 199.042969 L 78.394531 202.136719 "/>
<path style="fill:none;stroke-width:1.2;stroke-linecap:butt;stroke-linejoin:miter;stroke:rgb(0%,0%,100%);stroke-opacity:1;stroke-miterlimit:10;" d="M 78.394531 202.136719 L 88 205.230469 "/>
<path style="fill:none;stroke-width:1.2;stroke-linecap:butt;stroke-linejoin:miter;stroke:rgb(0%,0%,0%);stroke-opacity:1;stroke-miterlimit:10;" d="M 59.261719 179.257812 L 64.570312 203.921875 "/>
<path style="fill:none;stroke-width:1.2;stroke-linecap:butt;stroke-linejoin:miter;stroke:rgb(0%,0%,100%);stroke-opacity:1;stroke-miterlimit:10;" d="M 88.582031 211.652344 L 97.933594 203.191406 "/>
<path style="fill:none;stroke-width:1.2;stroke-linecap:butt;stroke-linejoin:miter;stroke:rgb(0%,0%,0%);stroke-opacity:1;stroke-miterlimit:10;" d="M 97.933594 203.191406 L 107.285156 194.726562 "/>
<path style=" stroke:none;fill-rule:nonzero;fill:rgb(100%,100%,100%);fill-opacity:1;" d="M 85.582031 206.152344 L 92.582031 206.152344 L 92.582031 217.152344 L 85.582031 217.152344 Z M 85.582031 206.152344 "/>
<g style="fill:rgb(0%,0%,100%);fill-opacity:1;">
  <use xlink:href="#glyph0-1" x="85.582031" y="214.81543"/>
</g>
<path style="fill:none;stroke-width:1.2;stroke-linecap:butt;stroke-linejoin:miter;stroke:rgb(0%,0%,0%);stroke-opacity:1;stroke-miterlimit:10;" d="M 107.285156 194.726562 L 131.296875 202.460938 "/>
<path style="fill:none;stroke-width:1.2;stroke-linecap:butt;stroke-linejoin:miter;stroke:rgb(0%,0%,0%);stroke-opacity:1;stroke-miterlimit:10;" d="M 111.503906 189.847656 L 130.714844 196.035156 "/>
<path style="fill:none;stroke-width:1.2;stroke-linecap:butt;stroke-linejoin:miter;stroke:rgb(0%,0%,0%);stroke-opacity:1;stroke-miterlimit:10;" d="M 101.976562 170.0625 L 107.285156 194.726562 "/>
<path style="fill:none;stroke-width:1.2;stroke-linecap:butt;stroke-linejoin:miter;stroke:rgb(0%,0%,0%);stroke-opacity:1;stroke-miterlimit:10;" d="M 131.296875 202.460938 L 140.648438 193.996094 "/>
<path style="fill:none;stroke-width:1.2;stroke-linecap:butt;stroke-linejoin:miter;stroke:rgb(0%,0%,100%);stroke-opacity:1;stroke-miterlimit:10;" d="M 140.648438 193.996094 L 150 185.53125 "/>
<path style="fill:none;stroke-width:1.2;stroke-linecap:butt;stroke-linejoin:miter;stroke:rgb(0%,0%,100%);stroke-opacity:1;stroke-miterlimit:10;" d="M 150 185.53125 L 147.347656 173.199219 "/>
<path style="fill:none;stroke-width:1.2;stroke-linecap:butt;stroke-linejoin:miter;stroke:rgb(0%,0%,0%);stroke-opacity:1;stroke-miterlimit:10;" d="M 147.347656 173.199219 L 144.691406 160.871094 "/>
<path style="fill:none;stroke-width:1.2;stroke-linecap:butt;stroke-linejoin:miter;stroke:rgb(0%,0%,100%);stroke-opacity:1;stroke-miterlimit:10;" d="M 143.667969 184.316406 L 141.542969 174.449219 "/>
<path style="fill:none;stroke-width:1.2;stroke-linecap:butt;stroke-linejoin:miter;stroke:rgb(0%,0%,0%);stroke-opacity:1;stroke-miterlimit:10;" d="M 141.542969 174.449219 L 139.417969 164.585938 "/>
<path style=" stroke:none;fill-rule:nonzero;fill:rgb(100%,100%,100%);fill-opacity:1;" d="M 147 180.03125 L 154 180.03125 L 154 191.03125 L 147 191.03125 Z M 147 180.03125 "/>
<g style="fill:rgb(0%,0%,100%);fill-opacity:1;">
  <use xlink:href="#glyph0-1" x="147" y="188.694336"/>
</g>
<path style="fill:none;stroke-width:1.2;stroke-linecap:butt;stroke-linejoin:miter;stroke:rgb(0%,0%,0%);stroke-opacity:1;stroke-miterlimit:10;" d="M 144.691406 160.871094 L 132.6875 157.003906 "/>
<path style="fill:none;stroke-width:1.2;stroke-linecap:butt;stroke-linejoin:miter;stroke:rgb(0%,0%,100%);stroke-opacity:1;stroke-miterlimit:10;" d="M 132.6875 157.003906 L 120.679688 153.136719 "/>
<path style="fill:none;stroke-width:1.2;stroke-linecap:butt;stroke-linejoin:miter;stroke:rgb(0%,0%,0%);stroke-opacity:1;stroke-miterlimit:10;" d="M 144.691406 160.871094 L 154.042969 152.40625 "/>
<path style="fill:none;stroke-width:1.2;stroke-linecap:butt;stroke-linejoin:miter;stroke:rgb(100%,0%,0%);stroke-opacity:1;stroke-miterlimit:10;" d="M 154.042969 152.40625 L 163.394531 143.941406 "/>
<path style="fill:none;stroke-width:1.2;stroke-linecap:butt;stroke-linejoin:miter;stroke:rgb(0%,0%,100%);stroke-opacity:1;stroke-miterlimit:10;" d="M 120.679688 153.136719 L 111.328125 161.601562 "/>
<path style="fill:none;stroke-width:1.2;stroke-linecap:butt;stroke-linejoin:miter;stroke:rgb(0%,0%,0%);stroke-opacity:1;stroke-miterlimit:10;" d="M 111.328125 161.601562 L 101.976562 170.0625 "/>
<path style="fill:none;stroke-width:1.2;stroke-linecap:butt;stroke-linejoin:miter;stroke:rgb(0%,0%,100%);stroke-opacity:1;stroke-miterlimit:10;" d="M 122.792969 159.230469 L 115.3125 166 "/>
<path style="fill:none;stroke-width:1.2;stroke-linecap:butt;stroke-linejoin:miter;stroke:rgb(0%,0%,0%);stroke-opacity:1;stroke-miterlimit:10;" d="M 115.3125 166 L 107.828125 172.773438 "/>
<path style=" stroke:none;fill-rule:nonzero;fill:rgb(100%,100%,100%);fill-opacity:1;" d="M 117.679688 147.636719 L 124.679688 147.636719 L 124.679688 158.636719 L 117.679688 158.636719 Z M 117.679688 147.636719 "/>
<g style="fill:rgb(0%,0%,100%);fill-opacity:1;">
  <use xlink:href="#glyph0-1" x="117.679688" y="156.299805"/>
</g>
<path style="fill:none;stroke-width:1.2;stroke-linecap:butt;stroke-linejoin:miter;stroke:rgb(0%,0%,0%);stroke-opacity:1;stroke-miterlimit:10;" d="M 101.976562 170.0625 L 89.972656 166.199219 "/>
<path style="fill:none;stroke-width:1.2;stroke-linecap:butt;stroke-linejoin:miter;stroke:rgb(0%,0%,100%);stroke-opacity:1;stroke-miterlimit:10;" d="M 89.972656 166.199219 L 77.964844 162.332031 "/>
<path style="fill:none;stroke-width:1.2;stroke-linecap:butt;stroke-linejoin:miter;stroke:rgb(0%,0%,100%);stroke-opacity:1;stroke-miterlimit:10;" d="M 77.964844 162.332031 L 68.613281 170.792969 "/>
<path style="fill:none;stroke-width:1.2;stroke-linecap:butt;stroke-linejoin:miter;stroke:rgb(0%,0%,0%);stroke-opacity:1;stroke-miterlimit:10;" d="M 68.613281 170.792969 L 59.261719 179.257812 "/>
<path style="fill:none;stroke-width:1.2;stroke-linecap:butt;stroke-linejoin:miter;stroke:rgb(0%,0%,100%);stroke-opacity:1;stroke-miterlimit:10;" d="M 77.964844 162.332031 L 75.3125 150 "/>
<path style="fill:none;stroke-width:1.2;stroke-linecap:butt;stroke-linejoin:miter;stroke:rgb(0%,0%,0%);stroke-opacity:1;stroke-miterlimit:10;" d="M 75.3125 150 L 72.65625 137.667969 "/>
<path style=" stroke:none;fill-rule:nonzero;fill:rgb(100%,100%,100%);fill-opacity:1;" d="M 74.964844 156.832031 L 81.964844 156.832031 L 81.964844 167.832031 L 74.964844 167.832031 Z M 74.964844 156.832031 "/>
<g style="fill:rgb(0%,0%,100%);fill-opacity:1;">
  <use xlink:href="#glyph0-1" x="74.964844" y="165.495117"/>
</g>
<path style="fill:none;stroke-width:1.2;stroke-linecap:butt;stroke-linejoin:miter;stroke:rgb(0%,0%,0%);stroke-opacity:1;stroke-miterlimit:10;" d="M 60.171875 176.433594 L 48.164062 172.566406 "/>
<path style="fill:none;stroke-width:1.2;stroke-linecap:butt;stroke-linejoin:miter;stroke:rgb(100%,0%,0%);stroke-opacity:1;stroke-miterlimit:10;" d="M 48.164062 172.566406 L 36.160156 168.699219 "/>
<path style="fill:none;stroke-width:1.2;stroke-linecap:butt;stroke-linejoin:miter;stroke:rgb(0%,0%,0%);stroke-opacity:1;stroke-miterlimit:10;" d="M 58.351562 182.082031 L 46.347656 178.214844 "/>
<path style="fill:none;stroke-width:1.2;stroke-linecap:butt;stroke-linejoin:miter;stroke:rgb(100%,0%,0%);stroke-opacity:1;stroke-miterlimit:10;" d="M 46.347656 178.214844 L 34.339844 174.351562 "/>
<path style=" stroke:none;fill-rule:nonzero;fill:rgb(100%,100%,100%);fill-opacity:1;" d="M 27.25 166.023438 L 35.25 166.023438 L 35.25 177.023438 L 27.25 177.023438 Z M 27.25 166.023438 "/>
<g style="fill:rgb(100%,0%,0%);fill-opacity:1;">
  <use xlink:href="#glyph0-2" x="27.25" y="174.686523"/>
</g>
<path style="fill:none;stroke-width:1.2;stroke-linecap:butt;stroke-linejoin:miter;stroke:rgb(0%,0%,0%);stroke-opacity:1;stroke-miterlimit:10;" d="M 72.65625 137.667969 L 91.359375 120.742188 "/>
<path style="fill:none;stroke-width:1.2;stroke-linecap:butt;stroke-linejoin:miter;stroke:rgb(0%,0%,0%);stroke-opacity:1;stroke-miterlimit:10;" d="M 91.359375 120.742188 L 88.707031 108.410156 "/>
<path style="fill:none;stroke-width:1.2;stroke-linecap:butt;stroke-linejoin:miter;stroke:rgb(100%,0%,0%);stroke-opacity:1;stroke-miterlimit:10;" d="M 88.707031 108.410156 L 86.050781 96.078125 "/>
<path style="fill:none;stroke-width:1.2;stroke-linecap:butt;stroke-linejoin:miter;stroke:rgb(100%,0%,0%);stroke-opacity:1;stroke-miterlimit:10;" d="M 86.050781 96.078125 L 95.402344 87.617188 "/>
<path style="fill:none;stroke-width:1.2;stroke-linecap:butt;stroke-linejoin:miter;stroke:rgb(0%,0%,0%);stroke-opacity:1;stroke-miterlimit:10;" d="M 95.402344 87.617188 L 104.753906 79.152344 "/>
<path style=" stroke:none;fill-rule:nonzero;fill:rgb(100%,100%,100%);fill-opacity:1;" d="M 82.050781 90.578125 L 90.050781 90.578125 L 90.050781 101.578125 L 82.050781 101.578125 Z M 82.050781 90.578125 "/>
<g style="fill:rgb(100%,0%,0%);fill-opacity:1;">
  <use xlink:href="#glyph0-2" x="82.050781" y="99.241211"/>
</g>
<path style="fill:none;stroke-width:1.2;stroke-linecap:butt;stroke-linejoin:miter;stroke:rgb(100%,0%,0%);stroke-opacity:1;stroke-miterlimit:10;" d="M 163.394531 143.941406 L 175.402344 147.808594 "/>
<path style="fill:none;stroke-width:1.2;stroke-linecap:butt;stroke-linejoin:miter;stroke:rgb(0%,0%,0%);stroke-opacity:1;stroke-miterlimit:10;" d="M 175.402344 147.808594 L 187.40625 151.675781 "/>
<path style=" stroke:none;fill-rule:nonzero;fill:rgb(100%,100%,100%);fill-opacity:1;" d="M 159.394531 138.441406 L 167.394531 138.441406 L 167.394531 149.441406 L 159.394531 149.441406 Z M 159.394531 138.441406 "/>
<g style="fill:rgb(100%,0%,0%);fill-opacity:1;">
  <use xlink:href="#glyph0-2" x="159.394531" y="147.104492"/>
</g>
<path style="fill:none;stroke-width:1.2;stroke-linecap:butt;stroke-linejoin:miter;stroke:rgb(0%,0%,0%);stroke-opacity:1;stroke-miterlimit:10;" d="M 187.40625 151.675781 L 192.714844 176.335938 "/>
<path style="fill:none;stroke-width:1.2;stroke-linecap:butt;stroke-linejoin:miter;stroke:rgb(0%,0%,0%);stroke-opacity:1;stroke-miterlimit:10;" d="M 193.742188 152.894531 L 197.988281 172.621094 "/>
<path style="fill:none;stroke-width:1.2;stroke-linecap:butt;stroke-linejoin:miter;stroke:rgb(0%,0%,0%);stroke-opacity:1;stroke-miterlimit:10;" d="M 206.109375 134.75 L 187.40625 151.675781 "/>
<path style="fill:none;stroke-width:1.2;stroke-linecap:butt;stroke-linejoin:miter;stroke:rgb(0%,0%,0%);stroke-opacity:1;stroke-miterlimit:10;" d="M 192.714844 176.335938 L 216.726562 184.070312 "/>
<path style="fill:none;stroke-width:1.2;stroke-linecap:butt;stroke-linejoin:miter;stroke:rgb(0%,0%,0%);stroke-opacity:1;stroke-miterlimit:10;" d="M 216.726562 184.070312 L 235.429688 167.144531 "/>
<path style="fill:none;stroke-width:1.2;stroke-linecap:butt;stroke-linejoin:miter;stroke:rgb(0%,0%,0%);stroke-opacity:1;stroke-miterlimit:10;" d="M 214.613281 177.976562 L 229.578125 164.433594 "/>
<path style="fill:none;stroke-width:1.2;stroke-linecap:butt;stroke-linejoin:miter;stroke:rgb(0%,0%,0%);stroke-opacity:1;stroke-miterlimit:10;" d="M 235.429688 167.144531 L 230.121094 142.480469 "/>
<path style="fill:none;stroke-width:1.2;stroke-linecap:butt;stroke-linejoin:miter;stroke:rgb(0%,0%,0%);stroke-opacity:1;stroke-miterlimit:10;" d="M 235.429688 167.144531 L 247.4375 171.011719 "/>
<path style="fill:none;stroke-width:1.2;stroke-linecap:butt;stroke-linejoin:miter;stroke:rgb(100%,0%,0%);stroke-opacity:1;stroke-miterlimit:10;" d="M 247.4375 171.011719 L 259.441406 174.878906 "/>
<path style="fill:none;stroke-width:1.2;stroke-linecap:butt;stroke-linejoin:miter;stroke:rgb(0%,0%,0%);stroke-opacity:1;stroke-miterlimit:10;" d="M 230.121094 142.480469 L 206.109375 134.75 "/>
<path style="fill:none;stroke-width:1.2;stroke-linecap:butt;stroke-linejoin:miter;stroke:rgb(0%,0%,0%);stroke-opacity:1;stroke-miterlimit:10;" d="M 225.902344 147.359375 L 206.691406 141.171875 "/>
<path style="fill:none;stroke-width:1.2;stroke-linecap:butt;stroke-linejoin:miter;stroke:rgb(100%,0%,0%);stroke-opacity:1;stroke-miterlimit:10;" d="M 259.441406 174.878906 L 262.097656 187.207031 "/>
<path style="fill:none;stroke-width:1.2;stroke-linecap:butt;stroke-linejoin:miter;stroke:rgb(0%,0%,0%);stroke-opacity:1;stroke-miterlimit:10;" d="M 262.097656 187.207031 L 264.75 199.539062 "/>
<path style=" stroke:none;fill-rule:nonzero;fill:rgb(100%,100%,100%);fill-opacity:1;" d="M 255.441406 169.378906 L 263.441406 169.378906 L 263.441406 180.378906 L 255.441406 180.378906 Z M 255.441406 169.378906 "/>
<g style="fill:rgb(100%,0%,0%);fill-opacity:1;">
  <use xlink:href="#glyph0-2" x="255.441406" y="178.041992"/>
</g>
</g>
</svg>

<svg xmlns="http://www.w3.org/2000/svg" xmlns:xlink="http://www.w3.org/1999/xlink" width="300pt" height="300pt" viewBox="0 0 300 300"><defs><symbol overflow="visible"><path d="M.453 1.594v-7.938h4.5v7.938zm.5-.5h3.5v-6.938h-3.5zm0 0"/></symbol><symbol overflow="visible" id="a"><path d="M.89-6.563H2.08l2.906 5.485v-5.484h.86V0H4.656L1.75-5.484V0H.89zm0 0"/></symbol><symbol overflow="visible" id="b"><path d="M3.547-5.953c-.65 0-1.164.242-1.547.72-.375.48-.563 1.13-.563 1.952 0 .835.188 1.49.563 1.967.383.48.898.72 1.547.72.644 0 1.156-.24 1.53-.72.376-.476.564-1.132.564-1.968 0-.822-.187-1.474-.562-1.954-.375-.477-.887-.72-1.53-.72zm0-.734c.914 0 1.648.312 2.203.937.55.617.828 1.438.828 2.47 0 1.042-.277 1.87-.828 2.483-.555.617-1.29.922-2.203.922-.93 0-1.668-.305-2.22-.922C.774-1.41.5-2.237.5-3.28c0-1.033.273-1.853.828-2.47.55-.625 1.29-.938 2.22-.938zm0 0"/></symbol></defs><g><path fill="#fff" d="M0 0h300v300H0z"/><path d="M45.867 220.848l18.703-16.926M64.57 203.922l12.004 3.863" stroke-width="1.2" stroke="#000" stroke-miterlimit="10" fill="none"/><path d="M76.574 207.785l12.008 3.867" stroke-width="1.2" stroke="#00f" stroke-miterlimit="10" fill="none"/><path d="M68.79 199.043l9.605 3.094" stroke-width="1.2" stroke="#000" stroke-miterlimit="10" fill="none"/><path d="M78.395 202.137L88 205.23" stroke-width="1.2" stroke="#00f" stroke-miterlimit="10" fill="none"/><path d="M59.262 179.258l5.308 24.664" stroke-width="1.2" stroke="#000" stroke-miterlimit="10" fill="none"/><path d="M88.582 211.652l9.352-8.46" stroke-width="1.2" stroke="#00f" stroke-miterlimit="10" fill="none"/><path d="M97.934 203.19l9.35-8.463" stroke-width="1.2" stroke="#000" stroke-miterlimit="10" fill="none"/><path d="M85.582 206.152h7v11h-7zm0 0" fill="#fff"/><use xlink:href="#a" x="85.582" y="214.815" fill="#00f"/><path d="M107.285 194.727l24.012 7.734M111.504 189.848l19.21 6.187M101.977 170.063l5.308 24.664M131.297 202.46l9.35-8.464" stroke-width="1.2" stroke="#000" stroke-miterlimit="10" fill="none"/><path d="M140.648 193.996L150 185.53M150 185.53l-2.652-12.33" stroke-width="1.2" stroke="#00f" stroke-miterlimit="10" fill="none"/><path d="M147.348 173.2l-2.657-12.33" stroke-width="1.2" stroke="#000" stroke-miterlimit="10" fill="none"/><path d="M143.668 184.316l-2.125-9.867" stroke-width="1.2" stroke="#00f" stroke-miterlimit="10" fill="none"/><path d="M141.543 174.45l-2.125-9.864" stroke-width="1.2" stroke="#000" stroke-miterlimit="10" fill="none"/><path d="M147 180.03h7v11h-7zm0 0" fill="#fff"/><use xlink:href="#a" x="147" y="188.694" fill="#00f"/><path d="M144.69 160.87l-12.002-3.866" stroke-width="1.2" stroke="#000" stroke-miterlimit="10" fill="none"/><path d="M132.688 157.004l-12.008-3.867" stroke-width="1.2" stroke="#00f" stroke-miterlimit="10" fill="none"/><path d="M144.69 160.87l9.353-8.464" stroke-width="1.2" stroke="#000" stroke-miterlimit="10" fill="none"/><path d="M154.043 152.406l9.352-8.465" stroke-width="1.2" stroke="#f00" stroke-miterlimit="10" fill="none"/><path d="M120.68 153.137l-9.352 8.465" stroke-width="1.2" stroke="#00f" stroke-miterlimit="10" fill="none"/><path d="M111.328 161.602l-9.35 8.46" stroke-width="1.2" stroke="#000" stroke-miterlimit="10" fill="none"/><path d="M122.793 159.23l-7.48 6.77" stroke-width="1.2" stroke="#00f" stroke-miterlimit="10" fill="none"/><path d="M115.313 166l-7.485 6.773" stroke-width="1.2" stroke="#000" stroke-miterlimit="10" fill="none"/><path d="M117.68 147.637h7v11h-7zm0 0" fill="#fff"/><use xlink:href="#a" x="117.68" y="156.3" fill="#00f"/><path d="M101.977 170.063L89.973 166.2" stroke-width="1.2" stroke="#000" stroke-miterlimit="10" fill="none"/><path d="M89.973 166.2l-12.008-3.868M77.965 162.332l-9.352 8.46" stroke-width="1.2" stroke="#00f" stroke-miterlimit="10" fill="none"/><path d="M68.613 170.793l-9.35 8.465" stroke-width="1.2" stroke="#000" stroke-miterlimit="10" fill="none"/><path d="M77.965 162.332L75.312 150" stroke-width="1.2" stroke="#00f" stroke-miterlimit="10" fill="none"/><path d="M75.313 150l-2.657-12.332" stroke-width="1.2" stroke="#000" stroke-miterlimit="10" fill="none"/><path d="M74.965 156.832h7v11h-7zm0 0" fill="#fff"/><use xlink:href="#a" x="74.965" y="165.495" fill="#00f"/><path d="M60.172 176.434l-12.008-3.868" stroke-width="1.2" stroke="#000" stroke-miterlimit="10" fill="none"/><path d="M48.164 172.566L36.16 168.7" stroke-width="1.2" stroke="#f00" stroke-miterlimit="10" fill="none"/><path d="M58.352 182.082l-12.004-3.867" stroke-width="1.2" stroke="#000" stroke-miterlimit="10" fill="none"/><path d="M46.348 178.215l-12.008-3.863" stroke-width="1.2" stroke="#f00" stroke-miterlimit="10" fill="none"/><path d="M27.25 166.023h8v11h-8zm0 0" fill="#fff"/><use xlink:href="#b" x="27.25" y="174.687" fill="#f00"/><path d="M72.656 137.668l18.703-16.926M91.36 120.742l-2.653-12.332" stroke-width="1.2" stroke="#000" stroke-miterlimit="10" fill="none"/><path d="M88.707 108.41L86.05 96.078M86.05 96.078l9.352-8.46" stroke-width="1.2" stroke="#f00" stroke-miterlimit="10" fill="none"/><path d="M95.402 87.617l9.352-8.465" stroke-width="1.2" stroke="#000" stroke-miterlimit="10" fill="none"/><path d="M82.05 90.578h8v11h-8zm0 0" fill="#fff"/><use xlink:href="#b" x="82.051" y="99.241" fill="#f00"/><path d="M163.395 143.94l12.007 3.87" stroke-width="1.2" stroke="#f00" stroke-miterlimit="10" fill="none"/><path d="M175.402 147.81l12.004 3.866" stroke-width="1.2" stroke="#000" stroke-miterlimit="10" fill="none"/><path d="M159.395 138.44h8v11h-8zm0 0" fill="#fff"/><use xlink:href="#b" x="159.395" y="147.104" fill="#f00"/><path d="M187.406 151.676l5.31 24.66M193.742 152.895l4.246 19.726M206.11 134.75l-18.704 16.926M192.715 176.336l24.012 7.734M216.727 184.07l18.703-16.925M214.613 177.977l14.965-13.543M235.43 167.145l-5.31-24.665M235.43 167.145l12.007 3.867" stroke-width="1.2" stroke="#000" stroke-miterlimit="10" fill="none"/><path d="M247.438 171.012l12.003 3.867" stroke-width="1.2" stroke="#f00" stroke-miterlimit="10" fill="none"/><path d="M230.12 142.48l-24.01-7.73M225.902 147.36l-19.21-6.188" stroke-width="1.2" stroke="#000" stroke-miterlimit="10" fill="none"/><path d="M259.44 174.88l2.658 12.327" stroke-width="1.2" stroke="#f00" stroke-miterlimit="10" fill="none"/><path d="M262.098 187.207l2.652 12.332" stroke-width="1.2" stroke="#000" stroke-miterlimit="10" fill="none"/><path d="M255.44 169.38h8v11h-8zm0 0" fill="#fff"/><use xlink:href="#b" x="255.441" y="178.042" fill="#f00"/></g></svg>
